X: 15
T: Maudabawn Chapel
C: Ed Reavy
Z: coppers and brass
S: https://thesession.org/tunes/302#setting49689
R: reel
M: 4/4
L: 1/8
K: Dmaj
(3(GFE) (3(FED) EDB,A,|G,A,B,D EB,DB,|G,A,B,D GABd|eaag eggf|
gbag eage|dfed Bcdf |edBd ~g2eB |dBAF GEEF |
G3F EDB,A,|G,A,B,D E2DB,| G,A,B,D GABd|eaag efgf |
g2-g2 a2-{b}af |gfed efge|d2ed BedB |AdBA GEE2 ||
|:E2BE dEBE| EdcB ADFD |E2BE dEBE| (3(ABA) FD A,D (3(FED)|
EBBA BcdB|{c}BA^GA Bcde| f2af gfec|dBAF GEE2:|

